humanity-icon-theme/Humanity/mimes/24/application-msword.svg

<?xml version="1.0" encoding="UTF-8" standalone="no"?>
<!-- Created with Inkscape (http://www.inkscape.org/) -->
<svg
   xmlns:svg="http://www.w3.org/2000/svg"
   xmlns="http://www.w3.org/2000/svg"
   xmlns:xlink="http://www.w3.org/1999/xlink"
   version="1.0"
   width="24"
   height="24"
   id="svg3497">
  <defs
     id="defs3499">
    <linearGradient
       id="linearGradient5048">
      <stop
         id="stop5050"
         style="stop-color:#000000;stop-opacity:0"
         offset="0" />
      <stop
         id="stop5056"
         style="stop-color:#000000;stop-opacity:1"
         offset="0.5" />
      <stop
         id="stop5052"
         style="stop-color:#000000;stop-opacity:0"
         offset="1" />
    </linearGradient>
    <linearGradient
       x1="302.85715"
       y1="366.64789"
       x2="302.85715"
       y2="609.50507"
       id="linearGradient2701"
       xlink:href="#linearGradient5048"
       gradientUnits="userSpaceOnUse"
       gradientTransform="matrix(3.52071e-2,0,0,8.23529e-3,-0.724852,18.980551)" />
    <radialGradient
       cx="605.71429"
       cy="486.64789"
       r="117.14286"
       fx="605.71429"
       fy="486.64789"
       id="radialGradient2698"
       xlink:href="#linearGradient5060"
       gradientUnits="userSpaceOnUse"
       gradientTransform="matrix(-1.204859e-2,0,0,8.23529e-3,10.761206,18.980568)" />
    <linearGradient
       id="linearGradient5060">
      <stop
         id="stop5062"
         style="stop-color:#000000;stop-opacity:1"
         offset="0" />
      <stop
         id="stop5064"
         style="stop-color:#000000;stop-opacity:0"
         offset="1" />
    </linearGradient>
    <radialGradient
       cx="605.71429"
       cy="486.64789"
       r="117.14286"
       fx="605.71429"
       fy="486.64789"
       id="radialGradient2695"
       xlink:href="#linearGradient5060"
       gradientUnits="userSpaceOnUse"
       gradientTransform="matrix(1.204859e-2,0,0,8.23529e-3,13.238794,18.980568)" />
    <linearGradient
       id="linearGradient2508">
      <stop
         id="stop2510"
         style="stop-color:#2e4a5a;stop-opacity:1"
         offset="0" />
      <stop
         id="stop2512"
         style="stop-color:#6e8796;stop-opacity:1"
         offset="1" />
    </linearGradient>
    <linearGradient
       x1="-51.786404"
       y1="53.623615"
       x2="-51.786404"
       y2="2.9062471"
       id="linearGradient2692"
       xlink:href="#linearGradient2508"
       gradientUnits="userSpaceOnUse"
       gradientTransform="matrix(0.3922137,0,0,0.4473607,29.199293,-1.2386986)" />
    <linearGradient
       id="linearGradient2867-449-88-871-390-598-476-591-434-148-895-534-212-357-729">
      <stop
         id="stop8022"
         style="stop-color:#85c2cf;stop-opacity:1"
         offset="0" />
      <stop
         id="stop8024"
         style="stop-color:#74a4be;stop-opacity:1"
         offset="0.26238" />
      <stop
         id="stop8026"
         style="stop-color:#5177a0;stop-opacity:1"
         offset="0.704952" />
      <stop
         id="stop8028"
         style="stop-color:#2c5889;stop-opacity:1"
         offset="1" />
    </linearGradient>
    <radialGradient
       cx="14.239056"
       cy="11.49049"
       r="18.000002"
       fx="14.239056"
       fy="11.49049"
       id="radialGradient2690"
       xlink:href="#linearGradient2867-449-88-871-390-598-476-591-434-148-895-534-212-357-729"
       gradientUnits="userSpaceOnUse"
       gradientTransform="matrix(0,1.5890979,-2.5735756,0,36.378536,-19.497874)" />
    <linearGradient
       id="linearGradient3211">
      <stop
         id="stop3213"
         style="stop-color:#ffffff;stop-opacity:1"
         offset="0" />
      <stop
         id="stop3215"
         style="stop-color:#ffffff;stop-opacity:0"
         offset="1" />
    </linearGradient>
    <linearGradient
       x1="24"
       y1="1.9999999"
       x2="24"
       y2="46.01725"
       id="linearGradient2687"
       xlink:href="#linearGradient3211"
       gradientUnits="userSpaceOnUse"
       gradientTransform="matrix(0.4545444,0,0,0.4651153,1.0909345,0.3372293)" />
    <linearGradient
       id="linearGradient8589">
      <stop
         id="stop8591"
         style="stop-color:#fefefe;stop-opacity:1"
         offset="0" />
      <stop
         id="stop8593"
         style="stop-color:#cbcbcb;stop-opacity:1"
         offset="1" />
    </linearGradient>
    <linearGradient
       x1="32.892288"
       y1="8.0590115"
       x2="36.358372"
       y2="5.4565363"
       id="linearGradient2683"
       xlink:href="#linearGradient8589"
       gradientUnits="userSpaceOnUse"
       gradientTransform="matrix(0.4778466,0,0,0.5524833,0.3722548,-7.61283e-2)" />
    <linearGradient
       id="linearGradient8265-821-176-38-919-66-249">
      <stop
         id="stop2687"
         style="stop-color:#ffffff;stop-opacity:1"
         offset="0" />
      <stop
         id="stop2689"
         style="stop-color:#ffffff;stop-opacity:0"
         offset="1" />
    </linearGradient>
    <linearGradient
       x1="16.626165"
       y1="15.298182"
       x2="20.054544"
       y2="24.627615"
       id="linearGradient2680"
       xlink:href="#linearGradient8265-821-176-38-919-66-249"
       gradientUnits="userSpaceOnUse"
       gradientTransform="matrix(0.3482993,0,0,0.6967199,3.640816,-3.1585463)" />
    <linearGradient
       id="linearGradient4000">
      <stop
         id="stop4002"
         style="stop-color:#000000;stop-opacity:1"
         offset="0" />
      <stop
         id="stop4004"
         style="stop-color:#000000;stop-opacity:0"
         offset="1" />
    </linearGradient>
    <linearGradient
       x1="75.854454"
       y1="28"
       x2="91"
       y2="12"
       id="linearGradient3495"
       xlink:href="#linearGradient4000"
       gradientUnits="userSpaceOnUse"
       gradientTransform="matrix(0.5586663,0,0,0.4151018,-29.133443,4.9484205)"
       spreadMethod="reflect" />
    <linearGradient
       id="linearGradient5293">
      <stop
         id="stop5295"
         style="stop-color:#ffffff;stop-opacity:1"
         offset="0" />
      <stop
         id="stop5297"
         style="stop-color:#ffffff;stop-opacity:0"
         offset="1" />
    </linearGradient>
    <linearGradient
       x1="75.854454"
       y1="28"
       x2="91"
       y2="12"
       id="linearGradient3492"
       xlink:href="#linearGradient5293"
       gradientUnits="userSpaceOnUse"
       gradientTransform="matrix(0.5586663,0,0,0.4151018,-29.161383,3.8982413)"
       spreadMethod="reflect" />
    <linearGradient
       id="linearGradient3759">
      <stop
         id="stop3761"
         style="stop-color:#000000;stop-opacity:1"
         offset="0" />
      <stop
         id="stop3763"
         style="stop-color:#000000;stop-opacity:0"
         offset="1" />
    </linearGradient>
    <linearGradient
       x1="26.188938"
       y1="30.4547"
       x2="44.250275"
       y2="16.134642"
       id="linearGradient3489"
       xlink:href="#linearGradient3759"
       gradientUnits="userSpaceOnUse"
       gradientTransform="matrix(0.460148,0,0,0.46875,0.8676164,1.9062498)"
       spreadMethod="reflect" />
    <linearGradient
       id="linearGradient2508-790">
      <stop
         id="stop3686"
         style="stop-color:#294351;stop-opacity:1"
         offset="0" />
      <stop
         id="stop3688"
         style="stop-color:#637a87;stop-opacity:1"
         offset="1" />
    </linearGradient>
    <linearGradient
       x1="24.239185"
       y1="44.110138"
       x2="24.239185"
       y2="0.19081046"
       id="linearGradient2627"
       xlink:href="#linearGradient2508-790"
       gradientUnits="userSpaceOnUse"
       gradientTransform="matrix(0.4950662,0,0,0.5045061,-2e-6,-0.4834741)" />
  </defs>
  <g
     id="layer1">
    <rect
       width="17"
       height="1.9999981"
       x="3.5000005"
       y="21.999998"
       id="rect2879"
       style="opacity:0.15;fill:url(#linearGradient2701);fill-opacity:1;fill-rule:nonzero;stroke:none;stroke-width:1;marker:none;visibility:visible;display:inline;overflow:visible" />
    <path
       d="M 3.5,22.000086 C 3.5,22.000086 3.5,23.999975 3.5,23.999975 C 2.8795275,24.00374 2,23.551901 2,22.999901 C 2,22.447902 2.6924,22.000086 3.5,22.000086 z"
       id="path2881"
       style="opacity:0.15;fill:url(#radialGradient2698);fill-opacity:1;fill-rule:nonzero;stroke:none;stroke-width:1;marker:none;visibility:visible;display:inline;overflow:visible" />
    <path
       d="M 20.5,22.000086 C 20.5,22.000086 20.5,23.999975 20.5,23.999975 C 21.120472,24.003775 22,23.551901 22,22.999901 C 22,22.447902 21.307599,22.000086 20.5,22.000086 L 20.5,22.000086 z"
       id="path2883"
       style="opacity:0.15;fill:url(#radialGradient2695);fill-opacity:1;fill-rule:nonzero;stroke:none;stroke-width:1;marker:none;visibility:visible;display:inline;overflow:visible" />
    <path
       d="M 3.4999617,0.49996097 C 7.3955416,0.49996097 11.104417,0.49996097 15,0.49996097 C 15.683368,0.73725787 19.541325,3.628131 20.5,5.5 C 20.5,11.229157 20.500039,16.770881 20.500039,22.500039 C 14.833346,22.500039 9.1666545,22.500039 3.4999617,22.500039 C 3.4999617,15.166679 3.4999617,7.8333189 3.4999617,0.49996097 L 3.4999617,0.49996097 z"
       id="path4160"
       style="fill:url(#radialGradient2690);fill-opacity:1;fill-rule:nonzero;stroke:url(#linearGradient2692);stroke-width:0.9999218;stroke-linecap:butt;stroke-linejoin:round;marker:none;marker-start:none;marker-mid:none;marker-end:none;stroke-miterlimit:4;stroke-dasharray:none;stroke-dashoffset:0;stroke-opacity:1;visibility:visible;display:inline;overflow:visible;enable-background:accumulate" />
    <path
       d="M 19.500001,5.6770357 C 19.500001,10.885341 19.500001,16.291693 19.500001,21.5 C 14.500001,21.5 9.5000012,21.5 4.5,21.5 C 4.5,14.83333 4.5,8.1666657 4.5,1.4999999 C 7.9372614,1.4999999 11.456499,1.4999999 14.893761,1.4999999"
       id="path2435"
       style="opacity:0.4;fill:none;stroke:url(#linearGradient2687);stroke-width:0.99999988;stroke-linecap:butt;stroke-linejoin:miter;stroke-miterlimit:4;stroke-dasharray:none;stroke-dashoffset:0;stroke-opacity:1;display:inline" />
    <path
       d="M 14.075474,1 C 15.231777,1.3287671 14.414533,5.6143789 14.414533,5.6143789 C 14.414533,5.6143789 18.929921,5.1866427 20.022243,6.809375 C 21.511396,9.0216317 19.954018,6.1742029 19.848796,5.9876778 C 19.092868,4.6476323 15.982456,1.4405918 14.803387,1.0464703 C 14.715155,1.0169778 14.519511,1 14.075474,1 z"
       id="path3370"
       style="opacity:0.2;fill:#000000;fill-opacity:1;fill-rule:evenodd;stroke:none;display:inline" />
    <path
       d="M 14,1 C 15.526166,1 15,5 15,5 C 15,5 19.992074,4.54674 19.992074,7 C 19.992074,6.4022581 20.047824,5.5215662 19.928004,5.3440674 C 19.088897,4.1010616 16.184239,1.4821803 15.129935,1.0464703 C 15.043957,1.0109384 14.444037,1 14,1 z"
       id="path4474"
       style="fill:url(#linearGradient2683);fill-opacity:1;fill-rule:evenodd;stroke:none;display:inline" />
    <path
       d="M 4.7619044,1.0000005 C 4.3410625,1.0000005 4,1.682244 4,2.5240739 L 4,13.671593 C 4.000965,13.765372 4.0215241,13.854055 4.0566849,13.916116 C 4.0918466,13.978178 4.1383962,14.007941 4.1850331,13.998178 L 19.858503,9.0340495 C 19.939128,9.008616 19.998873,8.870716 20,8.707462 L 20,5.7073203 C 20,5.7073203 14.901785,1.0000005 14.901785,1.0000005 L 4.7619044,1.0000005 z"
       id="path3879"
       style="opacity:0.2;fill:url(#linearGradient2680);fill-opacity:1;fill-rule:evenodd;stroke:none;stroke-width:1.00213289;stroke-linecap:round;stroke-linejoin:round;stroke-miterlimit:4;stroke-dasharray:none;stroke-dashoffset:0;stroke-opacity:1" />
    <path
       d="M 9.6947132,9 C 7.8257447,11.311292 5.9576208,13.625518 4.0886524,15.93681 C 4.0886524,18.290201 4.0886524,20.64661 4.0886524,23 C 8.5280572,23 12.96743,23 17.406834,23 C 18.635084,21.481059 18.824403,21.249517 20.088652,19.686058 C 20.088652,17.551863 20.088652,15.425867 20.088652,13.282848 C 16.420223,11.770639 12.076919,9.9819984 9.6947132,9 z"
       id="path3743"
       style="opacity:0.1;fill:url(#linearGradient3495);fill-opacity:1;fill-rule:nonzero;stroke:none;stroke-width:0.91176528;stroke-linecap:butt;stroke-linejoin:miter;marker:none;marker-start:none;marker-mid:none;marker-end:none;stroke-miterlimit:4;stroke-dasharray:none;stroke-dashoffset:0;stroke-opacity:1;visibility:visible;display:inline;overflow:visible;enable-background:accumulate" />
    <path
       d="M 9.6060607,8 C 7.7370922,10.311292 5.8689684,12.625518 4,14.93681 C 4,17.290201 4,19.64661 4,22 C 8.4394047,22 12.878778,22 17.318182,22 C 18.546432,20.481059 18.735751,20.249517 20,18.686058 C 20,16.551863 20,14.425867 20,12.282848 C 16.331571,10.770639 11.988267,8.9819984 9.6060607,8 z"
       id="path3697"
       style="opacity:0.4;fill:url(#linearGradient3492);fill-opacity:1;fill-rule:nonzero;stroke:none;stroke-width:0.91176528;stroke-linecap:butt;stroke-linejoin:miter;marker:none;marker-start:none;marker-mid:none;marker-end:none;stroke-miterlimit:4;stroke-dasharray:none;stroke-dashoffset:0;stroke-opacity:1;visibility:visible;display:inline;overflow:visible;enable-background:accumulate" />
    <path
       d="M 9.7405458,10.466713 L 18.308293,14.3488 L 9.7405458,10.466713 z M 8.8274396,11.707912 L 18.789936,16.221966 L 8.8274396,11.707912 z M 7.8999538,12.968656 L 11.087953,14.413154 L 7.8999538,12.968656 z M 6.9868476,14.209854 L 16.949344,18.723909 L 6.9868476,14.209854 z M 6.0593618,15.470599 L 15.025609,19.533248 L 6.0593618,15.470599 z M 5.1390658,16.721571 L 13.308313,20.423095 L 5.1390658,16.721571 z M 4.2259596,17.962769 L 13.989206,22.386542 L 4.2259596,17.962769 z"
       id="path3475"
       style="opacity:0.1;fill:none;fill-rule:evenodd;stroke:url(#linearGradient3489);stroke-width:1px;stroke-linecap:butt;stroke-linejoin:miter;stroke-opacity:1" />
    <path
       d="M 16.403583,18 C 15.53811,18 14.672638,18 13.807165,18 C 13.330199,16.015335 12.817412,14.038857 12.365115,12.04855 C 12.220696,11.421722 12.068635,10.349097 11.983861,9.962629 C 11.707655,12.110362 11.107,14.19049 10.615054,16.292359 C 10.476773,16.861573 10.338492,17.430786 10.200212,18 C 9.33228,18 8.464348,18 7.596417,18 C 6.730945,14.336796 5.865472,10.673591 5,7.0103876 C 5.749911,7.0103876 6.499825,7.0103876 7.249736,7.0103876 C 7.851107,10.028952 8.530962,13.032521 9.005269,16.07569 C 9.206386,14.638565 9.459573,13.208969 9.830286,11.806566 C 10.219137,10.20784 10.607989,8.6091139 10.996839,7.0103876 C 11.665613,7.0103876 12.334387,7.0103876 13.003161,7.0103876 C 13.513736,9.1306829 14.043834,11.246482 14.542012,13.369632 C 14.719319,14.267218 14.860134,15.171772 15.002108,16.07569 C 15.449532,13.083401 16.131511,10.135284 16.717792,7.1694613 C 16.70546,6.8812832 17.065086,7.0591221 17.24387,7.0103876 C 17.829247,7.0103876 18.414624,7.0103876 19,7.0103876 C 18.134528,10.673591 17.269056,14.336796 16.403583,18 z"
       id="path3473"
       style="font-size:30.51395607px;font-style:normal;font-variant:normal;font-weight:bold;font-stretch:normal;opacity:0.4;fill:#ffffff;fill-opacity:1;stroke:none;stroke-width:1px;stroke-linecap:butt;stroke-linejoin:miter;stroke-opacity:1;font-family:Droid Sans;-inkscape-font-specification:Droid Sans Bold" />
    <path
       d="M 16.403583,17 C 15.53811,17 14.672638,17 13.807165,17 C 13.330199,15.015335 12.817412,13.038857 12.365115,11.04855 C 12.220696,10.421722 12.068635,9.3490966 11.983861,8.962629 C 11.707655,11.110362 11.107,13.19049 10.615054,15.292359 C 10.476773,15.861573 10.338492,16.430786 10.200212,17 C 9.33228,17 8.464348,17 7.596417,17 C 6.730945,13.336796 5.865472,9.6735913 5,6.0103876 C 5.749911,6.0103876 6.499825,6.0103876 7.249736,6.0103876 C 7.851107,9.0289523 8.530962,12.032521 9.005269,15.07569 C 9.206386,13.638565 9.459573,12.208969 9.830286,10.806566 C 10.219137,9.2078401 10.607989,7.6091139 10.996839,6.0103876 C 11.665613,6.0103876 12.334387,6.0103876 13.003161,6.0103876 C 13.513736,8.1306829 14.043834,10.246482 14.542012,12.369632 C 14.719319,13.267218 14.860134,14.171772 15.002108,15.07569 C 15.449532,12.083401 16.131511,9.1352838 16.717792,6.1694613 C 16.70546,5.8812832 17.065086,6.0591221 17.24387,6.0103876 C 17.829247,6.0103876 18.414624,6.0103876 19,6.0103876 C 18.134528,9.6735913 17.269056,13.336796 16.403583,17 z"
       id="text2612"
       style="font-size:30.51395607px;font-style:normal;font-variant:normal;font-weight:bold;font-stretch:normal;fill:url(#linearGradient2627);fill-opacity:1;stroke:none;stroke-width:1px;stroke-linecap:butt;stroke-linejoin:miter;stroke-opacity:1;font-family:Droid Sans;-inkscape-font-specification:Droid Sans Bold" />
  </g>
</svg>

<?xml version="1.0" encoding="UTF-8" standalone="no"?>
<!-- Created with Inkscape (http://www.inkscape.org/) -->
<svg id="svg3497" xmlns="http://www.w3.org/2000/svg" height="24" width="24" version="1.0" xmlns:xlink="http://www.w3.org/1999/xlink">
 <defs id="defs3499">
  <linearGradient id="linearGradient2701" y2="609.51" gradientUnits="userSpaceOnUse" x2="302.86" gradientTransform="matrix(.035207 0 0 .0082353 -.72485 18.981)" y1="366.65" x1="302.86">
   <stop id="stop5050" style="stop-opacity:0" offset="0"/>
   <stop id="stop5056" offset=".5"/>
   <stop id="stop5052" style="stop-opacity:0" offset="1"/>
  </linearGradient>
  <radialGradient id="radialGradient2698" xlink:href="#linearGradient5060" gradientUnits="userSpaceOnUse" cy="486.65" cx="605.71" gradientTransform="matrix(-.012049 0 0 .0082353 10.761 18.981)" r="117.14"/>
  <linearGradient id="linearGradient5060">
   <stop id="stop5062" offset="0"/>
   <stop id="stop5064" style="stop-opacity:0" offset="1"/>
  </linearGradient>
  <radialGradient id="radialGradient2695" xlink:href="#linearGradient5060" gradientUnits="userSpaceOnUse" cy="486.65" cx="605.71" gradientTransform="matrix(.012049 0 0 .0082353 13.239 18.981)" r="117.14"/>
  <linearGradient id="linearGradient2692" y2="2.9062" gradientUnits="userSpaceOnUse" x2="-51.786" gradientTransform="matrix(.39221 0 0 .44736 29.199 -1.2387)" y1="53.624" x1="-51.786">
   <stop id="stop2510" style="stop-color:#2e4a5a" offset="0"/>
   <stop id="stop2512" style="stop-color:#6e8796" offset="1"/>
  </linearGradient>
  <radialGradient id="radialGradient2690" gradientUnits="userSpaceOnUse" cy="11.49" cx="14.239" gradientTransform="matrix(0 1.5891 -2.5736 0 36.379 -19.498)" r="18">
   <stop id="stop8022" style="stop-color:#85c2cf" offset="0"/>
   <stop id="stop8024" style="stop-color:#74a4be" offset=".26238"/>
   <stop id="stop8026" style="stop-color:#5177a0" offset=".70495"/>
   <stop id="stop8028" style="stop-color:#2c5889" offset="1"/>
  </radialGradient>
  <linearGradient id="linearGradient2687" y2="46.017" gradientUnits="userSpaceOnUse" x2="24" gradientTransform="matrix(.45454 0 0 .46512 1.0909 .33723)" y1="2" x1="24">
   <stop id="stop3213" style="stop-color:#fff" offset="0"/>
   <stop id="stop3215" style="stop-color:#fff;stop-opacity:0" offset="1"/>
  </linearGradient>
  <linearGradient id="linearGradient2683" y2="5.4565" gradientUnits="userSpaceOnUse" x2="36.358" gradientTransform="matrix(.47785 0 0 .55248 .37225 -.076128)" y1="8.059" x1="32.892">
   <stop id="stop8591" style="stop-color:#fefefe" offset="0"/>
   <stop id="stop8593" style="stop-color:#cbcbcb" offset="1"/>
  </linearGradient>
  <linearGradient id="linearGradient2680" y2="24.628" gradientUnits="userSpaceOnUse" x2="20.055" gradientTransform="matrix(.34830 0 0 .69672 3.6408 -3.1585)" y1="15.298" x1="16.626">
   <stop id="stop2687" style="stop-color:#fff" offset="0"/>
   <stop id="stop2689" style="stop-color:#fff;stop-opacity:0" offset="1"/>
  </linearGradient>
  <linearGradient id="linearGradient3495" y2="12" spreadMethod="reflect" gradientUnits="userSpaceOnUse" x2="91" gradientTransform="matrix(.55867 0 0 .41510 -29.133 4.9484)" y1="28" x1="75.854">
   <stop id="stop4002" offset="0"/>
   <stop id="stop4004" style="stop-opacity:0" offset="1"/>
  </linearGradient>
  <linearGradient id="linearGradient3492" y2="12" spreadMethod="reflect" gradientUnits="userSpaceOnUse" x2="91" gradientTransform="matrix(.55867 0 0 .41510 -29.161 3.8982)" y1="28" x1="75.854">
   <stop id="stop5295" style="stop-color:#fff" offset="0"/>
   <stop id="stop5297" style="stop-color:#fff;stop-opacity:0" offset="1"/>
  </linearGradient>
  <linearGradient id="linearGradient3489" y2="16.135" spreadMethod="reflect" gradientUnits="userSpaceOnUse" x2="44.25" gradientTransform="matrix(.46015 0 0 .46875 .86762 1.9062)" y1="30.455" x1="26.189">
   <stop id="stop3761" offset="0"/>
   <stop id="stop3763" style="stop-opacity:0" offset="1"/>
  </linearGradient>
  <linearGradient id="linearGradient2627" y2=".19081" gradientUnits="userSpaceOnUse" x2="24.239" gradientTransform="matrix(.49507 0 0 .50451 -.000002 -.48347)" y1="44.11" x1="24.239">
   <stop id="stop3686" style="stop-color:#294351" offset="0"/>
   <stop id="stop3688" style="stop-color:#637a87" offset="1"/>
  </linearGradient>
 </defs>
 <g id="layer1">
  <rect id="rect2879" style="opacity:.15;fill:url(#linearGradient2701)" height="2" width="17" y="22" x="3.5"/>
  <path id="path2881" style="opacity:.15;fill:url(#radialGradient2698)" d="m3.5 22v2c-0.6205 0.004-1.5-0.448-1.5-1s0.6924-1 1.5-1z"/>
  <path id="path2883" style="opacity:.15;fill:url(#radialGradient2695)" d="m20.5 22v2c0.62 0.004 1.5-0.448 1.5-1s-0.692-1-1.5-1z"/>
  <path id="path4160" style="stroke-linejoin:round;stroke-width:.99992;stroke:url(#linearGradient2692);fill:url(#radialGradient2690)" d="m3.5 0.49996h11.5c0.683 0.2373 4.541 3.1281 5.5 5v17h-17v-22-0.00004z"/>
  <path id="path2435" style="opacity:.4;stroke:url(#linearGradient2687);fill:none" d="m19.5 5.677v15.823h-15v-20h10.394"/>
  <path id="path3370" style="opacity:.2;fill-rule:evenodd" d="m14.075 1c1.157 0.3288 0.34 4.6144 0.34 4.6144s4.515-0.4278 5.607 1.195c1.489 2.2122-0.068-0.6352-0.173-0.8217-0.756-1.3401-3.867-4.5471-5.046-4.9412-0.088-0.0295-0.283-0.0465-0.728-0.0465z"/>
  <path id="path4474" style="fill:url(#linearGradient2683);fill-rule:evenodd" d="m14 1c1.526 0 1 4 1 4s4.992-0.4533 4.992 2c0-0.5977 0.056-1.4784-0.064-1.6559-0.839-1.243-3.744-3.8619-4.798-4.2976-0.086-0.0356-0.686-0.0465-1.13-0.0465z"/>
  <path id="path3879" style="opacity:.2;fill:url(#linearGradient2680);fill-rule:evenodd" d="m4.7619 1c-0.4208 0-0.7619 0.6822-0.7619 1.5241v11.148c0.001 0.093 0.0215 0.182 0.0567 0.244 0.0351 0.062 0.0817 0.092 0.1283 0.082l15.674-4.964c0.08-0.0254 0.14-0.1633 0.141-0.3265v-3.0002l-5.098-4.7073h-10.14z"/>
  <path id="path3743" style="opacity:.1;fill:url(#linearGradient3495)" d="m9.6947 9c-1.869 2.311-3.7371 4.626-5.606 6.937v7.063h13.318c1.228-1.519 1.417-1.75 2.682-3.314v-6.403c-3.669-1.512-8.012-3.301-10.394-4.283z"/>
  <path id="path3697" style="opacity:.4;fill:url(#linearGradient3492)" d="m9.6061 8c-1.869 2.311-3.7371 4.626-5.6061 6.937v7.063h13.318c1.228-1.519 1.418-1.75 2.682-3.314v-6.403c-3.668-1.512-8.012-3.301-10.394-4.283z"/>
  <path id="path3475" style="opacity:.1;stroke:url(#linearGradient3489);stroke-width:1px;fill:none" d="m9.7405 10.467l8.5675 3.882-8.5675-3.882zm-0.9131 1.241l9.9626 4.514-9.9626-4.514zm-0.9274 1.261l3.188 1.444-3.188-1.444zm-0.9132 1.241l9.9622 4.514-9.9622-4.514zm-0.9274 1.261l8.9666 4.062-8.9666-4.062zm-0.9203 1.251l8.1689 3.701-8.1689-3.701zm-0.9131 1.241l9.763 4.424-9.763-4.424z"/>
  <path id="path3473" style="opacity:.4;fill:#fff" d="m16.404 18h-2.597c-0.477-1.985-0.99-3.961-1.442-5.951-0.144-0.627-0.296-1.7-0.381-2.0864-0.276 2.1474-0.877 4.2274-1.369 6.3294-0.138 0.57-0.277 1.139-0.415 1.708h-2.6036c-0.8655-3.663-1.7309-7.326-2.5964-10.99 0.7499 0.0004 1.4998 0.0004 2.2497 0.0004 0.6014 3.0186 1.2813 6.0226 1.7556 9.0656 0.2011-1.437 0.4543-2.867 0.825-4.269 0.3887-1.599 0.7777-3.1979 1.1667-4.7966h2.006c0.511 2.1203 1.041 4.2356 1.539 6.3596 0.177 0.897 0.318 1.802 0.46 2.706 0.448-2.993 1.13-5.941 1.716-8.9065-0.013-0.2882 0.347-0.1104 0.526-0.1591h1.756c-0.865 3.6636-1.731 7.3266-2.596 10.99z"/>
  <path id="text2612" style="fill:url(#linearGradient2627)" d="m16.404 17h-2.597c-0.477-1.985-0.99-3.961-1.442-5.951-0.144-0.627-0.296-1.6999-0.381-2.0864-0.276 2.1474-0.877 4.2274-1.369 6.3294-0.138 0.57-0.277 1.139-0.415 1.708h-2.6036c-0.8655-3.663-1.7309-7.3264-2.5964-10.99 0.7499 0.0004 1.4998 0.0004 2.2497 0.0004 0.6014 3.0186 1.2813 6.0226 1.7556 9.0656 0.2011-1.437 0.4543-2.867 0.825-4.269 0.3887-1.5992 0.7777-3.1979 1.1667-4.7966h2.006c0.511 2.1203 1.041 4.2356 1.539 6.3596 0.177 0.897 0.318 1.802 0.46 2.706 0.448-2.993 1.13-5.9407 1.716-8.9065-0.013-0.2882 0.347-0.1104 0.526-0.1591h1.756c-0.865 3.6632-1.731 7.3266-2.596 10.99z"/>
 </g>
</svg>
